image/icons/facebook-icon.svg

<svg width="11" height="18" viewBox="0 0 11 18" fill="none" xmlns="http://www.w3.org/2000/svg">
<path d="M6.28571 7H11L10.4762 9H6.28571V18H4.19048V9H0V7H4.19048V5.128C4.19048 3.345 4.38533 2.698 4.74991 2.046C5.10715 1.40181 5.65904 0.875009 6.3339 0.534C7.01695 0.186 7.69476 0 9.56267 0C10.1095 0 10.5893 0.0500001 11 0.15V2H9.56267C8.17562 2 7.75343 2.078 7.32286 2.298C7.00438 2.46 6.76762 2.686 6.59791 2.99C6.36743 3.401 6.28571 3.804 6.28571 5.128V7Z" fill="#122947"/>
</svg>

<svg width="11" height="18" fill="none" xmlns="http://www.w3.org/2000/svg"><path d="M6.286 7H11l-.524 2h-4.19v9H4.19V9H0V7h4.19V5.128c0-1.783.195-2.43.56-3.082A3.726 3.726 0 016.334.534C7.017.186 7.694 0 9.563 0c.546 0 1.026.05 1.437.15V2H9.563c-1.387 0-1.81.078-2.24.298a1.668 1.668 0 00-.725.692c-.23.411-.312.814-.312 2.138V7z" fill="#122947"/></svg>
